X: 215
%
T: Greig's Pipes
C:
O:Scotland
B:Keith Norman MacDonald : "The Skye collection of the best reels & strathspeys extant" : 1887
Z:Ralph Palmer
R:Reel
M:C
L:1/8
K:A
   f | e>ATc>A e>AA>f | e>ATc>A B>FF>f | e>Ac>A e>Ac>A | B/2B/2B (cA) BFF :|
|: B | (cA)cA cAAB | (cA)cA (BF)FB | (cA)cA (EA)cA | B/2B/2B (cA) BFF :|
|: A | E>A,C>A, E>A,A,F | E>A, C>A, F>B,B,F | E>A,C>A, E>A,C>A, | B,/2B,/2B, CE FB,B, :|
|: G | AGAE CA,A,G | AGAE FB,B,G | AGAE CDEC | B,/2B,/2B, (CE) FB,B, :|


